static/logos/dovetail-wordmark-color.svg

<svg width="100" height="27" viewBox="0 0 100 27" fill="none" xmlns="http://www.w3.org/2000/svg">
<g clip-path="url(#clip0_1_2966)">
<path fill-rule="evenodd" clip-rule="evenodd" d="M38.6481 17.6486H36.1347V10.0432H38.6481C39.7037 10.0432 40.574 10.3957 41.2378 11.0947C41.9024 11.7996 42.2338 12.7185 42.2338 13.8497C42.2338 14.9742 41.9024 15.8998 41.2378 16.598C40.574 17.2962 39.7037 17.6486 38.6481 17.6486ZM38.6481 7.55255H33.6172V20.1401H38.6481C40.3751 20.1401 41.8353 19.5301 42.9933 18.325C44.1514 17.12 44.7421 15.6137 44.7421 13.8497C44.7421 12.079 44.1522 10.5727 42.9933 9.36772C41.8353 8.16263 40.3751 7.55255 38.6481 7.55255ZM50.6013 17.996C49.9374 17.996 49.3694 17.7745 48.9338 17.3247C48.4916 16.875 48.2625 16.2993 48.2625 15.6061C48.2625 14.9196 48.4916 14.3439 48.9338 13.8942C49.3694 13.4444 49.9374 13.2229 50.6013 13.2229C51.265 13.2229 51.8332 13.4444 52.2754 13.8942C52.726 14.3439 52.9552 14.9196 52.9552 15.6061C52.9552 16.2993 52.726 16.875 52.2754 17.3247C51.8332 17.7745 51.265 17.996 50.6013 17.996ZM54.0091 12.2125C53.0802 11.2902 51.9364 10.8253 50.6013 10.8253C49.2661 10.8253 48.1223 11.2902 47.2001 12.2125C46.2779 13.1347 45.8129 14.2777 45.8129 15.6061C45.8129 16.9412 46.2779 18.085 47.2001 19.0072C48.1223 19.9287 49.2661 20.3936 50.6013 20.3936C51.9364 20.3936 53.0802 19.9287 54.0091 19.0072C54.9322 18.0842 55.4038 16.9412 55.4038 15.6061C55.4038 14.2777 54.9314 13.1347 54.0091 12.2125ZM65.056 10.9092L61.7295 20.1401H58.7924L55.4357 10.9092H58.1287L60.2383 17.0024L62.3631 10.9092H65.056ZM67.6239 14.6981C67.764 14.1896 68.0149 13.7835 68.3842 13.4964C68.7752 13.1935 69.2762 13.0382 69.8745 13.0382C70.3755 13.0382 70.8328 13.1859 71.2315 13.4746C71.6007 13.7465 71.8583 14.1526 71.9918 14.6981H67.6239ZM69.8745 10.8253C68.4798 10.8253 67.3218 11.2826 66.4289 12.1907C65.536 13.1053 65.0862 14.2483 65.0862 15.6061C65.0862 16.9781 65.5436 18.1287 66.4439 19.0366C67.3503 19.9363 68.5612 20.3936 70.0516 20.3936C71.7854 20.3936 73.1129 19.7449 73.9982 18.4534L74.0494 18.3871L72.0657 17.2441L72.0287 17.2945C71.5923 17.871 70.9361 18.1589 70.0885 18.1589C68.7827 18.1589 67.9855 17.6571 67.6684 16.6316H74.36L74.3741 16.5645C74.4329 16.2329 74.4631 15.9082 74.4631 15.6061C74.4631 14.2634 74.0268 13.1196 73.1641 12.2049C72.3015 11.2902 71.1946 10.8253 69.8745 10.8253ZM79.1877 13.4511V17.0881C79.1877 17.375 79.254 17.5824 79.3941 17.7074C79.5343 17.84 79.7482 17.9138 80.0285 17.9364C80.1544 17.9432 80.2937 17.9432 80.4414 17.9432C80.6478 17.9432 80.877 17.9364 81.1279 17.9213H81.2016V20.1494L81.1345 20.157C80.7066 20.2081 80.3013 20.2307 79.9395 20.2307C78.9586 20.2307 78.2209 20.0537 77.741 19.6995C77.0696 19.2128 76.7382 18.3343 76.7382 17.0881V13.4511H75.0137V11.1887H76.7382V9.3047L79.1877 8.55955V11.1887H80.8878V13.4511H79.1877ZM86.569 18.0548C85.8759 18.0548 85.3002 17.8198 84.8572 17.3692C84.4081 16.9194 84.179 16.3219 84.179 15.6061C84.179 14.8978 84.4081 14.3004 84.858 13.8505C85.3002 13.3923 85.8835 13.1641 86.5699 13.1641C87.2563 13.1641 87.8387 13.3923 88.296 13.8505C88.7459 14.307 88.9741 14.8978 88.9741 15.6061C88.9741 16.3219 88.7459 16.9194 88.296 17.3692C87.8387 17.819 87.263 18.0548 86.569 18.0548ZM89.0026 10.9092V12.0043C88.3095 11.2222 87.3293 10.8253 86.1411 10.8253C84.9385 10.8253 83.8836 11.2902 83.0277 12.2125C82.165 13.1347 81.7295 14.2777 81.7295 15.6061C81.7295 16.9412 82.1659 18.085 83.0286 19.0072C83.8845 19.9295 84.9318 20.3936 86.1419 20.3936C87.3293 20.3936 88.3095 19.911 89.0026 19.1289V20.1401H91.5203V10.9092H89.0026ZM93.3476 9.2217C93.2083 9.08851 93.098 8.92815 93.0239 8.75062C92.9488 8.57309 92.9109 8.3821 92.9136 8.18948C92.9136 7.79675 93.0582 7.44766 93.3476 7.1573C93.6378 6.85856 93.9787 6.71338 94.3711 6.71338C94.777 6.71338 95.1251 6.85856 95.4145 7.15646C95.7047 7.44766 95.8503 7.79675 95.8503 8.18864C95.8503 8.58222 95.7047 8.93048 95.4145 9.22079C95.2789 9.35895 95.1161 9.46817 94.9362 9.54195C94.7572 9.61573 94.5646 9.65271 94.3711 9.65045C94.1803 9.65144 93.9913 9.61392 93.8159 9.54023C93.6396 9.46654 93.4805 9.35823 93.3476 9.2217ZM93.1984 20.1401H95.7156V10.9092H93.1984V20.1401ZM97.3946 20.1401H99.9118V6.71338H97.3946V20.1401Z" fill="#230078"/>
<path fill-rule="evenodd" clip-rule="evenodd" d="M23.5516 16.7835L17.6773 20.1401V13.4268L11.8031 10.0332L17.6773 6.71338L23.5516 10.0701V16.7835ZM11.8023 10.0701L5.92806 13.4268V6.71338L0.0546875 3.35669L5.92889 0L11.8023 3.35669V10.0701ZM11.8023 23.4968L5.92806 26.8535L5.92889 20.1401L0.0546875 16.7835L5.92806 13.4268L11.8023 16.7835V23.4968Z" fill="#230078"/>
</g>
<defs>
<clipPath id="clip0_1_2966">
<rect width="100" height="26.8535" fill="white"/>
</clipPath>
</defs>
</svg>

<svg xmlns="http://www.w3.org/2000/svg" width="237.037" height="64" fill="none" viewBox="0 0 100 27"><g fill="#230078" fill-rule="evenodd" clip-path="url(#a)" clip-rule="evenodd"><path d="M38.648 17.649h-2.513v-7.606h2.513c1.056 0 1.926.353 2.59 1.052.664.705.996 1.623.996 2.755 0 1.124-.332 2.05-.996 2.748-.664.698-1.534 1.05-2.59 1.05Zm0-10.096h-5.03V20.14h5.03c1.727 0 3.187-.61 4.345-1.815s1.75-2.711 1.75-4.475c0-1.771-.59-3.277-1.75-4.482-1.158-1.205-2.618-1.815-4.345-1.815Zm11.953 10.443c-.664 0-1.232-.221-1.667-.671-.442-.45-.671-1.026-.671-1.719 0-.686.229-1.262.67-1.712.436-.45 1.004-.671 1.668-.671.664 0 1.232.221 1.674.671.451.45.68 1.026.68 1.712 0 .693-.229 1.269-.68 1.719-.442.45-1.01.671-1.674.671Zm3.408-5.783c-.929-.923-2.073-1.388-3.408-1.388s-2.479.465-3.4 1.388c-.923.922-1.388 2.065-1.388 3.393 0 1.335.465 2.479 1.387 3.401.922.922 2.066 1.387 3.401 1.387s2.48-.465 3.408-1.387c.923-.923 1.395-2.066 1.395-3.4 0-1.33-.473-2.472-1.395-3.394Zm11.047-1.304L61.73 20.14h-2.938l-3.356-9.23h2.693l2.11 6.092 2.124-6.093h2.693Zm2.568 3.79c.14-.51.39-.915.76-1.203.391-.303.892-.458 1.49-.458.502 0 .959.148 1.358.437.369.271.626.678.76 1.223h-4.368Zm2.25-3.874c-1.394 0-2.552.458-3.445 1.366-.893.914-1.343 2.057-1.343 3.415 0 1.372.458 2.523 1.358 3.43.906.9 2.117 1.358 3.608 1.358 1.733 0 3.06-.65 3.946-1.94l.051-.067-1.983-1.143-.037.05c-.437.577-1.093.865-1.94.865-1.306 0-2.103-.502-2.42-1.527h6.691l.014-.068c.059-.331.09-.656.09-.958 0-1.343-.437-2.486-1.3-3.401-.862-.915-1.97-1.38-3.29-1.38Zm9.314 2.626v3.637c0 .287.066.494.206.62.14.132.354.206.634.228a11.476 11.476 0 0 0 1.1-.015h.074v2.228l-.067.008a10.17 10.17 0 0 1-1.196.074c-.98 0-1.718-.177-2.198-.532-.671-.486-1.003-1.365-1.003-2.61V13.45h-1.724V11.19h1.724V9.305l2.45-.745v2.629h1.7v2.262h-1.7Zm7.381 4.604c-.693 0-1.269-.235-1.712-.686-.449-.45-.678-1.047-.678-1.763 0-.708.23-1.306.679-1.755.442-.459 1.025-.687 1.712-.687.686 0 1.269.228 1.726.687.45.456.678 1.047.678 1.755 0 .716-.228 1.313-.678 1.763-.457.45-1.033.686-1.727.686Zm2.434-7.146v1.095c-.694-.782-1.674-1.179-2.862-1.179-1.203 0-2.257.465-3.113 1.388-.863.922-1.299 2.065-1.299 3.393 0 1.335.437 2.479 1.3 3.401.856.922 1.903 1.387 3.113 1.387 1.187 0 2.168-.483 2.86-1.265v1.011h2.518v-9.23h-2.517Zm4.345-1.687a1.396 1.396 0 0 1-.324-.471 1.39 1.39 0 0 1-.11-.562c0-.392.144-.741.434-1.032.29-.298.63-.444 1.023-.444a1.4 1.4 0 0 1 1.044.443c.29.292.435.64.435 1.033 0 .393-.145.741-.435 1.032a1.43 1.43 0 0 1-1.044.43 1.415 1.415 0 0 1-1.023-.43Zm-.15 10.918h2.518v-9.23h-2.518v9.23Zm4.197 0h2.517V6.713h-2.517V20.14ZM23.552 16.784l-5.875 3.356v-6.713l-5.874-3.394 5.874-3.32 5.875 3.357v6.713Zm-11.75-6.714-5.874 3.357V6.713L.055 3.357 5.929 0l5.873 3.357v6.713Zm0 13.427-5.874 3.357V20.14L.056 16.783l5.873-3.356 5.874 3.357v6.713Z"/></g><defs><clipPath id="a"><path fill="#fff" d="M0 0h100v26.854H0z"/></clipPath></defs></svg>
